X: 15243
T: Girl Of The Brown Hair, The
R: barndance
M: 4/4
K: Dmajor
zD|D2 EFG A2 F|d3 cA B2 E|E2 A3 G FG|E2 ED3 z D|
D2 EFG A2 F|d2 c2A B2 E|E2 A3 G FG|E2 E D3 z A|
d2 cd e2 ce|d2 cA B3 E|E2 A3 G FG|E2 E D3 z D|
D2 EFG A2 F|d2 cA B3 E|E A4 G EF|D6||

